Flat-Remix-Dark/apps/scalable/okteta.svg

<svg xmlns="http://www.w3.org/2000/svg" xmlns:xlink="http://www.w3.org/1999/xlink" width="384pt" height="384pt" version="1.1" viewBox="0 0 384 384"> <defs> <filter id="alpha" width="100%" height="100%" x="0%" y="0%" filterUnits="objectBoundingBox"> <feColorMatrix in="SourceGraphic" type="matrix" values="0 0 0 0 1 0 0 0 0 1 0 0 0 0 1 0 0 0 1 0"/> </filter> <mask id="mask0"> <g filter="url(#alpha)"> <rect style="fill:rgb(0%,0%,0%);fill-opacity:0.2" width="384" height="384" x="0" y="0"/> </g> </mask> <clipPath id="clip1"> <rect width="384" height="384" x="0" y="0"/> </clipPath> <g id="surface5" clip-path="url(#clip1)"> <path d="M 60 336 L 60 348 C 60 357.972656 68.027344 366 78 366 L 306 366 C 315.972656 366 324 357.972656 324 348 L 324 336 C 324 345.972656 315.972656 354 306 354 L 78 354 C 68.027344 354 60 345.972656 60 336 Z M 60 336" style="fill:rgb(0%,0%,0%)"/> </g> <mask id="mask1"> <g filter="url(#alpha)"> <rect style="fill:rgb(0%,0%,0%);fill-opacity:0.101961" width="384" height="384" x="0" y="0"/> </g> </mask> <clipPath id="clip2"> <rect width="384" height="384" x="0" y="0"/> </clipPath> <g id="surface8" clip-path="url(#clip2)"> <path d="M 78 24 C 68.027344 24 60 32.027344 60 42 L 60 48 C 60 38.027344 68.027344 30 78 30 L 306 30 C 315.972656 30 324 38.027344 324 48 L 324 42 C 324 32.027344 315.972656 24 306 24 Z M 78 24" style="fill:rgb(100.000%,100.000%,100.000%)"/> </g> <mask id="mask2"> <g filter="url(#alpha)"> <rect style="fill:rgb(0%,0%,0%)" width="384" height="384" x="0" y="0"/> </g> </mask> <clipPath id="clip3"> <rect width="384" height="384" x="0" y="0"/> </clipPath> <g id="surface11" clip-path="url(#clip3)"> <path d="M 88.5 60 C 86.015625 60 84.003906 61.789062 84 63.996094 L 84 104.003906 C 84.003906 106.210938 86.015625 108 88.5 108 L 115.5 108 C 117.984375 108 119.996094 106.210938 120 104.003906 L 120 63.996094 C 119.996094 61.789062 117.984375 60 115.5 60 Z M 90 66 L 114 66 L 114 102 L 90 102 Z M 90 66" style="fill:rgb(100.000%,100.000%,100.000%)"/> <path d="M 146.953125 60 C 145.296875 60.035156 143.972656 61.847656 144 64.050781 L 144 103.953125 C 143.984375 105.390625 144.554688 106.730469 145.488281 107.457031 C 146.421875 108.179688 147.578125 108.179688 148.511719 107.457031 C 149.445312 106.730469 150.015625 105.390625 150 103.953125 L 150 64.050781 C 150.011719 62.972656 149.695312 61.933594 149.121094 61.167969 C 148.546875 60.40625 147.765625 59.984375 146.953125 60 Z M 146.953125 60" style="fill-rule:evenodd;fill:rgb(100.000%,100.000%,100.000%)"/> <path d="M 182.953125 60 C 181.296875 60.035156 179.972656 61.847656 180 64.050781 L 180 103.953125 C 179.984375 105.390625 180.554688 106.730469 181.488281 107.457031 C 182.421875 108.179688 183.578125 108.179688 184.511719 107.457031 C 185.445312 106.730469 186.015625 105.390625 186 103.953125 L 186 64.050781 C 186.011719 62.972656 185.695312 61.933594 185.121094 61.167969 C 184.546875 60.40625 183.765625 59.984375 182.953125 60 Z M 182.953125 60" style="fill-rule:evenodd;fill:rgb(100.000%,100.000%,100.000%)"/> <path d="M 208.5 60 C 206.015625 60 204.003906 61.789062 204 63.996094 L 204 104.003906 C 204.003906 106.210938 206.015625 108 208.5 108 L 235.5 108 C 237.984375 108 239.996094 106.210938 240 104.003906 L 240 63.996094 C 239.996094 61.789062 237.984375 60 235.5 60 Z M 210 66 L 234 66 L 234 102 L 210 102 Z M 210 66" style="fill:rgb(100.000%,100.000%,100.000%)"/> <path d="M 268.5 60 C 266.015625 60 264.003906 61.789062 264 63.996094 L 264 104.003906 C 264.003906 106.210938 266.015625 108 268.5 108 L 295.5 108 C 297.984375 108 299.996094 106.210938 300 104.003906 L 300 63.996094 C 299.996094 61.789062 297.984375 60 295.5 60 Z M 270 66 L 294 66 L 294 102 L 270 102 Z M 270 66" style="fill:rgb(100.000%,100.000%,100.000%)"/> <path d="M 295.5 204 C 297.984375 204 299.996094 205.789062 300 207.996094 L 300 248.003906 C 299.996094 250.210938 297.984375 252 295.5 252 L 268.5 252 C 266.015625 252 264.003906 250.210938 264 248.003906 L 264 207.996094 C 264.003906 205.789062 266.015625 204 268.5 204 Z M 294 210 L 270 210 L 270 246 L 294 246 Z M 294 210" style="fill:rgb(100.000%,100.000%,100.000%)"/> <path d="M 237.046875 204 C 238.703125 204.035156 240.027344 205.847656 240 208.050781 L 240 247.953125 C 240.015625 249.390625 239.445312 250.730469 238.511719 251.457031 C 237.578125 252.179688 236.421875 252.179688 235.488281 251.457031 C 234.554688 250.730469 233.984375 249.390625 234 247.953125 L 234 208.050781 C 233.988281 206.972656 234.304688 205.933594 234.878906 205.167969 C 235.453125 204.40625 236.234375 203.984375 237.046875 204 Z M 237.046875 204" style="fill-rule:evenodd;fill:rgb(100.000%,100.000%,100.000%)"/> <path d="M 201.046875 204 C 202.703125 204.035156 204.027344 205.847656 204 208.050781 L 204 247.953125 C 204.015625 249.390625 203.445312 250.730469 202.511719 251.457031 C 201.578125 252.179688 200.421875 252.179688 199.488281 251.457031 C 198.554688 250.730469 197.984375 249.390625 198 247.953125 L 198 208.050781 C 197.988281 206.972656 198.304688 205.933594 198.878906 205.167969 C 199.453125 204.40625 200.234375 203.984375 201.046875 204 Z M 201.046875 204" style="fill-rule:evenodd;fill:rgb(100.000%,100.000%,100.000%)"/> <path d="M 175.5 204 C 177.984375 204 179.996094 205.789062 180 207.996094 L 180 248.003906 C 179.996094 250.210938 177.984375 252 175.5 252 L 148.5 252 C 146.015625 252 144.003906 250.210938 144 248.003906 L 144 207.996094 C 144.003906 205.789062 146.015625 204 148.5 204 Z M 174 210 L 150 210 L 150 246 L 174 246 Z M 174 210" style="fill:rgb(100.000%,100.000%,100.000%)"/> <path d="M 115.5 204 C 117.984375 204 119.996094 205.789062 120 207.996094 L 120 248.003906 C 119.996094 250.210938 117.984375 252 115.5 252 L 88.5 252 C 86.015625 252 84.003906 250.210938 84 248.003906 L 84 207.996094 C 84.003906 205.789062 86.015625 204 88.5 204 Z M 114 210 L 90 210 L 90 246 L 114 246 Z M 114 210" style="fill:rgb(100.000%,100.000%,100.000%)"/> <path d="M 163.5 132 C 165.984375 132 167.996094 133.789062 168 135.996094 L 168 176.003906 C 167.996094 178.210938 165.984375 180 163.5 180 L 136.5 180 C 134.015625 180 132.003906 178.210938 132 176.003906 L 132 135.996094 C 132.003906 133.789062 134.015625 132 136.5 132 Z M 162 138 L 138 138 L 138 174 L 162 174 Z M 162 138" style="fill:rgb(100.000%,100.000%,100.000%)"/> <path d="M 99.046875 132 C 100.703125 132.035156 102.027344 133.847656 102 136.050781 L 102 175.953125 C 102.015625 177.390625 101.445312 178.730469 100.511719 179.457031 C 99.578125 180.179688 98.421875 180.179688 97.488281 179.457031 C 96.554688 178.730469 95.984375 177.390625 96 175.953125 L 96 136.050781 C 95.988281 134.972656 96.304688 133.933594 96.878906 133.167969 C 97.453125 132.40625 98.234375 131.984375 99.046875 132 Z M 99.046875 132" style="fill-rule:evenodd;fill:rgb(100.000%,100.000%,100.000%)"/> <path d="M 206.953125 132 C 205.296875 132.035156 203.972656 133.847656 204 136.050781 L 204 175.953125 C 203.984375 177.390625 204.554688 178.730469 205.488281 179.457031 C 206.421875 180.179688 207.578125 180.179688 208.511719 179.457031 C 209.445312 178.730469 210.015625 177.390625 210 175.953125 L 210 136.050781 C 210.011719 134.972656 209.695312 133.933594 209.121094 133.167969 C 208.546875 132.40625 207.765625 131.984375 206.953125 132 Z M 206.953125 132" style="fill-rule:evenodd;fill:rgb(100.000%,100.000%,100.000%)"/> <path d="M 268.5 132 C 266.015625 132 264.003906 133.789062 264 135.996094 L 264 176.003906 C 264.003906 178.210938 266.015625 180 268.5 180 L 295.5 180 C 297.984375 180 299.996094 178.210938 300 176.003906 L 300 135.996094 C 299.996094 133.789062 297.984375 132 295.5 132 Z M 270 138 L 294 138 L 294 174 L 270 174 Z M 270 138" style="fill:rgb(100.000%,100.000%,100.000%)"/> <path d="M 230.953125 132 C 229.296875 132.035156 227.972656 133.847656 228 136.050781 L 228 175.953125 C 227.984375 177.390625 228.554688 178.730469 229.488281 179.457031 C 230.421875 180.179688 231.578125 180.179688 232.511719 179.457031 C 233.445312 178.730469 234.015625 177.390625 234 175.953125 L 234 136.050781 C 234.011719 134.972656 233.695312 133.933594 233.121094 133.167969 C 232.546875 132.40625 231.765625 131.984375 230.953125 132 Z M 230.953125 132" style="fill-rule:evenodd;fill:rgb(100.000%,100.000%,100.000%)"/> <path d="M 220.5 276 C 218.015625 276 216.003906 277.789062 216 279.996094 L 216 320.003906 C 216.003906 322.210938 218.015625 324 220.5 324 L 247.5 324 C 249.984375 324 251.996094 322.210938 252 320.003906 L 252 279.996094 C 251.996094 277.789062 249.984375 276 247.5 276 Z M 222 282 L 246 282 L 246 318 L 222 318 Z M 222 282" style="fill:rgb(100.000%,100.000%,100.000%)"/> <path d="M 284.953125 276 C 283.296875 276.035156 281.972656 277.847656 282 280.050781 L 282 319.953125 C 281.984375 321.390625 282.554688 322.730469 283.488281 323.457031 C 284.421875 324.179688 285.578125 324.179688 286.511719 323.457031 C 287.445312 322.730469 288.015625 321.390625 288 319.953125 L 288 280.050781 C 288.011719 278.972656 287.695312 277.933594 287.121094 277.167969 C 286.546875 276.40625 285.765625 275.984375 284.953125 276 Z M 284.953125 276" style="fill-rule:evenodd;fill:rgb(100.000%,100.000%,100.000%)"/> <path d="M 177.046875 276 C 178.703125 276.035156 180.027344 277.847656 180 280.050781 L 180 319.953125 C 180.015625 321.390625 179.445312 322.730469 178.511719 323.457031 C 177.578125 324.179688 176.421875 324.179688 175.488281 323.457031 C 174.554688 322.730469 173.984375 321.390625 174 319.953125 L 174 280.050781 C 173.988281 278.972656 174.304688 277.933594 174.878906 277.167969 C 175.453125 276.40625 176.234375 275.984375 177.046875 276 Z M 177.046875 276" style="fill-rule:evenodd;fill:rgb(100.000%,100.000%,100.000%)"/> <path d="M 115.5 276 C 117.984375 276 119.996094 277.789062 120 279.996094 L 120 320.003906 C 119.996094 322.210938 117.984375 324 115.5 324 L 88.5 324 C 86.015625 324 84.003906 322.210938 84 320.003906 L 84 279.996094 C 84.003906 277.789062 86.015625 276 88.5 276 Z M 114 282 L 90 282 L 90 318 L 114 318 Z M 114 282" style="fill:rgb(100.000%,100.000%,100.000%)"/> <path d="M 153.046875 276 C 154.703125 276.035156 156.027344 277.847656 156 280.050781 L 156 319.953125 C 156.015625 321.390625 155.445312 322.730469 154.511719 323.457031 C 153.578125 324.179688 152.421875 324.179688 151.488281 323.457031 C 150.554688 322.730469 149.984375 321.390625 150 319.953125 L 150 280.050781 C 149.988281 278.972656 150.304688 277.933594 150.878906 277.167969 C 151.453125 276.40625 152.234375 275.984375 153.046875 276 Z M 153.046875 276" style="fill-rule:evenodd;fill:rgb(100.000%,100.000%,100.000%)"/> </g> <mask id="mask3"> <g filter="url(#alpha)"> <rect style="fill:rgb(0%,0%,0%);fill-opacity:0.2" width="384" height="384" x="0" y="0"/> </g> </mask> <clipPath id="clip4"> <rect width="384" height="384" x="0" y="0"/> </clipPath> <g id="surface14" clip-path="url(#clip4)"> <path d="M 383.746094 275.089844 C 381.046875 326.011719 338.996094 365.9375 288 366 C 237.664062 366 195.875 327.117188 192.253906 276.910156 C 192.121094 278.605469 192.039062 280.300781 192 282 C 192 335.019531 234.980469 378 288 378 C 341.019531 378 384 335.019531 384 282 C 383.996094 279.691406 383.910156 277.386719 383.742188 275.085938 Z M 383.746094 275.089844" style="fill:rgb(0%,0%,0%)"/> </g> </defs> <g> <use mask="url(#mask0)" xlink:href="#surface5"/> <path d="M 324 342 L 324 42 C 324 32.027344 315.972656 24 306 24 L 78 24 C 68.027344 24 60 32.027344 60 42 L 60 342 C 60 351.972656 68.027344 360 78 360 L 306 360 C 315.972656 360 324 351.972656 324 342 Z M 324 342"/> <use mask="url(#mask1)" xlink:href="#surface8"/> <use style="fill:rgb(100.000%,100.000%,100.000%)" mask="url(#mask2)" xlink:href="#surface11"/> <use mask="url(#mask3)" xlink:href="#surface14"/> <path d="M 384 276 C 384 329.019531 341.019531 372 288 372 C 234.980469 372 192 329.019531 192 276 C 192 222.980469 234.980469 180 288 180 C 341.019531 180 384 222.980469 384 276 Z M 384 276" style="fill-rule:evenodd;fill:rgb(99.215%,28.627%,28.627%)"/> <path d="M 240 302.617188 L 240 324 L 261.382812 324 L 315.386719 269.996094 L 294.003906 248.613281 Z M 334.304688 251.148438 C 336.566406 248.886719 336.566406 245.320312 334.304688 243.058594 L 320.9375 229.695312 C 318.675781 227.433594 315.113281 227.433594 312.851562 229.695312 L 301.679688 240.9375 L 323.0625 262.324219 Z M 334.304688 251.148438" style="fill:rgb(100.000%,100.000%,100.000%)"/> </g> </svg>

<svg width="512" height="512" version="1.1" viewBox="0 0 384 384" xmlns="http://www.w3.org/2000/svg" xmlns:xlink="http://www.w3.org/1999/xlink"><defs><filter id="alpha" x="0%" y="0%" width="100%" height="100%"><feColorMatrix in="SourceGraphic" values="0 0 0 0 1 0 0 0 0 1 0 0 0 0 1 0 0 0 1 0"/></filter><mask id="b"><g filter="url(#alpha)"><rect width="384" height="384"/></g></mask><clipPath id="c"><rect width="384" height="384"/></clipPath><g id="a" clip-path="url(#c)"><path d="m88.5 60c-2.4844 0-4.4961 1.7891-4.5 3.9961v40.008c0.003906 2.207 2.0156 3.9961 4.5 3.9961h27c2.4844 0 4.4961-1.7891 4.5-3.9961v-40.008c-0.003906-2.207-2.0156-3.9961-4.5-3.9961zm1.5 6h24v36h-24z" fill="#fff"/><path d="m146.95 60c-1.6562 0.035156-2.9805 1.8477-2.9531 4.0508v39.902c-0.015625 1.4375 0.55469 2.7773 1.4883 3.5039 0.93359 0.72266 2.0898 0.72266 3.0234 0 0.93359-0.72656 1.5039-2.0664 1.4883-3.5039v-39.902c0.011719-1.0781-0.30469-2.1172-0.87891-2.8828-0.57422-0.76172-1.3555-1.1836-2.168-1.168z" fill="#fff" fill-rule="evenodd"/><path d="m182.95 60c-1.6562 0.035156-2.9805 1.8477-2.9531 4.0508v39.902c-0.015625 1.4375 0.55469 2.7773 1.4883 3.5039 0.93359 0.72266 2.0898 0.72266 3.0234 0 0.93359-0.72656 1.5039-2.0664 1.4883-3.5039v-39.902c0.011719-1.0781-0.30469-2.1172-0.87891-2.8828-0.57422-0.76172-1.3555-1.1836-2.168-1.168z" fill="#fff" fill-rule="evenodd"/><path d="m208.5 60c-2.4844 0-4.4961 1.7891-4.5 3.9961v40.008c0.003906 2.207 2.0156 3.9961 4.5 3.9961h27c2.4844 0 4.4961-1.7891 4.5-3.9961v-40.008c-0.003906-2.207-2.0156-3.9961-4.5-3.9961zm1.5 6h24v36h-24z" fill="#fff"/><path d="m268.5 60c-2.4844 0-4.4961 1.7891-4.5 3.9961v40.008c0.003906 2.207 2.0156 3.9961 4.5 3.9961h27c2.4844 0 4.4961-1.7891 4.5-3.9961v-40.008c-0.003906-2.207-2.0156-3.9961-4.5-3.9961zm1.5 6h24v36h-24z" fill="#fff"/><path d="m295.5 204c2.4844 0 4.4961 1.7891 4.5 3.9961v40.008c-0.003906 2.207-2.0156 3.9961-4.5 3.9961h-27c-2.4844 0-4.4961-1.7891-4.5-3.9961v-40.008c0.003906-2.207 2.0156-3.9961 4.5-3.9961zm-1.5 6h-24v36h24z" fill="#fff"/><path d="m237.05 204c1.6562 0.035156 2.9805 1.8477 2.9531 4.0508v39.902c0.015625 1.4375-0.55469 2.7773-1.4883 3.5039-0.93359 0.72266-2.0898 0.72266-3.0234 0-0.93359-0.72656-1.5039-2.0664-1.4883-3.5039v-39.902c-0.011719-1.0781 0.30469-2.1172 0.87891-2.8828 0.57422-0.76172 1.3555-1.1836 2.168-1.168z" fill="#fff" fill-rule="evenodd"/><path d="m201.05 204c1.6562 0.035156 2.9805 1.8477 2.9531 4.0508v39.902c0.015625 1.4375-0.55469 2.7773-1.4883 3.5039-0.93359 0.72266-2.0898 0.72266-3.0234 0-0.93359-0.72656-1.5039-2.0664-1.4883-3.5039v-39.902c-0.011719-1.0781 0.30469-2.1172 0.87891-2.8828 0.57422-0.76172 1.3555-1.1836 2.168-1.168z" fill="#fff" fill-rule="evenodd"/><path d="m175.5 204c2.4844 0 4.4961 1.7891 4.5 3.9961v40.008c-0.003906 2.207-2.0156 3.9961-4.5 3.9961h-27c-2.4844 0-4.4961-1.7891-4.5-3.9961v-40.008c0.003906-2.207 2.0156-3.9961 4.5-3.9961zm-1.5 6h-24v36h24z" fill="#fff"/><path d="m115.5 204c2.4844 0 4.4961 1.7891 4.5 3.9961v40.008c-0.003906 2.207-2.0156 3.9961-4.5 3.9961h-27c-2.4844 0-4.4961-1.7891-4.5-3.9961v-40.008c0.003906-2.207 2.0156-3.9961 4.5-3.9961zm-1.5 6h-24v36h24z" fill="#fff"/><path d="m163.5 132c2.4844 0 4.4961 1.7891 4.5 3.9961v40.008c-0.003906 2.207-2.0156 3.9961-4.5 3.9961h-27c-2.4844 0-4.4961-1.7891-4.5-3.9961v-40.008c0.003906-2.207 2.0156-3.9961 4.5-3.9961zm-1.5 6h-24v36h24z" fill="#fff"/><path d="m99.047 132c1.6562 0.035156 2.9805 1.8477 2.9531 4.0508v39.902c0.015625 1.4375-0.55469 2.7773-1.4883 3.5039-0.93359 0.72266-2.0898 0.72266-3.0234 0-0.93359-0.72656-1.5039-2.0664-1.4883-3.5039v-39.902c-0.011719-1.0781 0.30469-2.1172 0.87891-2.8828 0.57422-0.76172 1.3555-1.1836 2.168-1.168z" fill="#fff" fill-rule="evenodd"/><path d="m206.95 132c-1.6562 0.035156-2.9805 1.8477-2.9531 4.0508v39.902c-0.015625 1.4375 0.55469 2.7773 1.4883 3.5039 0.93359 0.72266 2.0898 0.72266 3.0234 0 0.93359-0.72656 1.5039-2.0664 1.4883-3.5039v-39.902c0.011719-1.0781-0.30469-2.1172-0.87891-2.8828-0.57422-0.76172-1.3555-1.1836-2.168-1.168z" fill="#fff" fill-rule="evenodd"/><path d="m268.5 132c-2.4844 0-4.4961 1.7891-4.5 3.9961v40.008c0.003906 2.207 2.0156 3.9961 4.5 3.9961h27c2.4844 0 4.4961-1.7891 4.5-3.9961v-40.008c-0.003906-2.207-2.0156-3.9961-4.5-3.9961zm1.5 6h24v36h-24z" fill="#fff"/><path d="m230.95 132c-1.6562 0.035156-2.9805 1.8477-2.9531 4.0508v39.902c-0.015625 1.4375 0.55469 2.7773 1.4883 3.5039 0.93359 0.72266 2.0898 0.72266 3.0234 0 0.93359-0.72656 1.5039-2.0664 1.4883-3.5039v-39.902c0.011719-1.0781-0.30469-2.1172-0.87891-2.8828-0.57422-0.76172-1.3555-1.1836-2.168-1.168z" fill="#fff" fill-rule="evenodd"/><path d="m220.5 276c-2.4844 0-4.4961 1.7891-4.5 3.9961v40.008c0.003906 2.207 2.0156 3.9961 4.5 3.9961h27c2.4844 0 4.4961-1.7891 4.5-3.9961v-40.008c-0.003906-2.207-2.0156-3.9961-4.5-3.9961zm1.5 6h24v36h-24z" fill="#fff"/><path d="m284.95 276c-1.6562 0.035156-2.9805 1.8477-2.9531 4.0508v39.902c-0.015625 1.4375 0.55469 2.7773 1.4883 3.5039 0.93359 0.72266 2.0898 0.72266 3.0234 0 0.93359-0.72656 1.5039-2.0664 1.4883-3.5039v-39.902c0.011719-1.0781-0.30469-2.1172-0.87891-2.8828-0.57422-0.76172-1.3555-1.1836-2.168-1.168z" fill="#fff" fill-rule="evenodd"/><path d="m177.05 276c1.6562 0.035156 2.9805 1.8477 2.9531 4.0508v39.902c0.015625 1.4375-0.55469 2.7773-1.4883 3.5039-0.93359 0.72266-2.0898 0.72266-3.0234 0-0.93359-0.72656-1.5039-2.0664-1.4883-3.5039v-39.902c-0.011719-1.0781 0.30469-2.1172 0.87891-2.8828 0.57422-0.76172 1.3555-1.1836 2.168-1.168z" fill="#fff" fill-rule="evenodd"/><path d="m115.5 276c2.4844 0 4.4961 1.7891 4.5 3.9961v40.008c-0.003906 2.207-2.0156 3.9961-4.5 3.9961h-27c-2.4844 0-4.4961-1.7891-4.5-3.9961v-40.008c0.003906-2.207 2.0156-3.9961 4.5-3.9961zm-1.5 6h-24v36h24z" fill="#fff"/><path d="m153.05 276c1.6562 0.035156 2.9805 1.8477 2.9531 4.0508v39.902c0.015625 1.4375-0.55469 2.7773-1.4883 3.5039-0.93359 0.72266-2.0898 0.72266-3.0234 0-0.93359-0.72656-1.5039-2.0664-1.4883-3.5039v-39.902c-0.011719-1.0781 0.30469-2.1172 0.87891-2.8828 0.57422-0.76172 1.3555-1.1836 2.168-1.168z" fill="#fff" fill-rule="evenodd"/></g><clipPath><rect width="384" height="384"/></clipPath><clipPath><rect width="384" height="384"/></clipPath><clipPath><rect width="384" height="384"/></clipPath><clipPath><rect width="384" height="384"/></clipPath><clipPath><rect width="384" height="384"/></clipPath><clipPath><rect width="384" height="384"/></clipPath><clipPath><rect width="384" height="384"/></clipPath><clipPath><rect width="384" height="384"/></clipPath><clipPath><rect width="384" height="384"/></clipPath><clipPath><rect width="384" height="384"/></clipPath><clipPath><rect width="384" height="384"/></clipPath><clipPath><rect width="384" height="384"/></clipPath><clipPath><rect width="384" height="384"/></clipPath><clipPath><rect width="384" height="384"/></clipPath><clipPath><rect width="384" height="384"/></clipPath><clipPath><rect width="384" height="384"/></clipPath><clipPath><rect width="384" height="384"/></clipPath><clipPath><rect width="384" height="384"/></clipPath><clipPath><rect width="384" height="384"/></clipPath><clipPath><rect width="384" height="384"/></clipPath><clipPath><rect width="384" height="384"/></clipPath><clipPath><rect width="384" height="384"/></clipPath><clipPath><rect width="384" height="384"/></clipPath><clipPath><rect width="384" height="384"/></clipPath><clipPath><rect width="384" height="384"/></clipPath><clipPath><rect width="384" height="384"/></clipPath><clipPath><rect width="384" height="384"/></clipPath><clipPath><rect width="384" height="384"/></clipPath><clipPath><rect width="384" height="384"/></clipPath><clipPath><rect width="384" height="384"/></clipPath><clipPath><rect width="384" height="384"/></clipPath><clipPath><rect width="384" height="384"/></clipPath><clipPath><rect width="384" height="384"/></clipPath><clipPath><rect width="384" height="384"/></clipPath><clipPath><rect width="384" height="384"/></clipPath><clipPath><rect width="384" height="384"/></clipPath><clipPath><rect width="384" height="384"/></clipPath><clipPath><rect width="384" height="384"/></clipPath><clipPath><rect width="384" height="384"/></clipPath><clipPath><rect width="384" height="384"/></clipPath><clipPath><rect width="384" height="384"/></clipPath><clipPath><rect width="384" height="384"/></clipPath><clipPath><rect width="384" height="384"/></clipPath><clipPath><rect width="384" height="384"/></clipPath><clipPath><rect width="384" height="384"/></clipPath><clipPath><rect width="384" height="384"/></clipPath><clipPath><rect width="384" height="384"/></clipPath><clipPath><rect width="384" height="384"/></clipPath><clipPath><rect width="384" height="384"/></clipPath><clipPath><rect width="384" height="384"/></clipPath><clipPath id="f"><path d="m111 119h177v23h-177z"/></clipPath><clipPath><path d="m368.64 199.88c0-93.234-75.602-168.75-168.75-168.75-93.152 0-168.75 75.516-168.75 168.75s75.598 168.75 168.75 168.75c93.148 0 168.75-75.516 168.75-168.75z"/></clipPath><clipPath id="e"><path d="m177 130h45v89h-45z"/></clipPath><clipPath><path d="m368.64 199.88c0-93.234-75.602-168.75-168.75-168.75-93.152 0-168.75 75.516-168.75 168.75s75.598 168.75 168.75 168.75c93.148 0 168.75-75.516 168.75-168.75z"/></clipPath><clipPath id="d"><path d="m111 207h177v89h-177z"/></clipPath><clipPath><path d="m368.64 199.88c0-93.234-75.602-168.75-168.75-168.75-93.152 0-168.75 75.516-168.75 168.75s75.598 168.75 168.75 168.75c93.148 0 168.75-75.516 168.75-168.75z"/></clipPath><clipPath id="g"><rect width="384" height="384"/></clipPath><g clip-path="url(#g)"><g clip-path="url(#f)"></g><g clip-path="url(#e)"></g><g clip-path="url(#d)"></g></g><clipPath><rect width="384" height="384"/></clipPath><clipPath><rect width="384" height="384"/></clipPath><clipPath><rect width="384" height="384"/></clipPath><clipPath><rect width="384" height="384"/></clipPath><clipPath><rect width="384" height="384"/></clipPath><clipPath><rect width="384" height="384"/></clipPath><clipPath><rect width="384" height="384"/></clipPath><clipPath><rect width="384" height="384"/></clipPath><clipPath><rect width="384" height="384"/></clipPath><clipPath><rect width="384" height="384"/></clipPath><clipPath><rect width="384" height="384"/></clipPath></defs><path d="m324 349.5v-300c0-9.9726-8.0273-18-18-18h-228c-9.9727 0-18 8.0274-18 18v300c0 9.9727 8.0273 18 18 18h228c9.9727 0 18-8.0273 18-18z" opacity=".3"/><path d="m324 342v-300c0-9.9727-8.0273-18-18-18h-228c-9.9727 0-18 8.0273-18 18v300c0 9.9727 8.0273 18 18 18h228c9.9727 0 18-8.0273 18-18z"/><path d="m384 294c0 49.706-40.294 90-90 90s-90-40.294-90-90 40.294-90 90-90 90 40.294 90 90z" fill="#020000" fill-rule="evenodd" opacity=".3" stroke-width=".9375"/><use width="100%" height="100%" fill="#ffffff" mask="url(#b)" xlink:href="#a"/><path d="m384 286.5c0 49.706-40.294 90-90 90s-90-40.294-90-90 40.294-90 90-90 90 40.294 90 90z" fill="#fd3535" fill-rule="evenodd" stroke-width=".9375"/><path d="m249 318.95v20.046h20.046l50.628-50.628-20.046-20.046zm88.41-48.252c2.1203-2.1203 2.1203-5.4638 0-7.5841l-12.531-12.528c-2.1203-2.1203-5.4601-2.1203-7.5804 0l-10.474 10.539 20.046 20.05z" opacity=".3" stroke-width=".93749"/><path d="m249 311.45v20.046h20.046l50.628-50.628-20.046-20.046zm88.41-48.252c2.1203-2.1203 2.1203-5.4638 0-7.5841l-12.531-12.528c-2.1203-2.1203-5.4601-2.1203-7.5804 0l-10.474 10.539 20.046 20.05z" fill="#fff" stroke-width=".93749"/><path transform="scale(.75)" d="m104 32c-13.297 0-24 10.703-24 24v10c0-13.297 10.703-24 24-24h304c13.297 0 24 10.703 24 24v-10c0-13.297-10.703-24-24-24h-304z" fill="#fff" opacity=".2" stroke-width="1.3333"/></svg>
